X:7893
T:Waltz for Jane
O:England
M:9/8
L:1/8
C:Rodney Miller
N:In concert, we played the strains AABA, but the play order seems to be mutable,
so long as it ends with an A strain.
K:A
EFG|A2 e c3 B2 A|G2 e c3 B2 A|F3-F2 A d2 f|e6 E3|F3-F2 G A2 F|E C2-C3 E3|F3-F2 G A2 c|B6 A2G|
A2 e c3 B2 A|G2 e c3 B2 A|F2-F3 A d2 B|c6 E3|F3-F2 G A2B|c6 B2A|FA2-A3 A2G|A6||
A2G|FC2-C3 C2D|C6 F3|E3 A,3 A,2B,|C6 C3|D6 D2E|F6 F3|E6 E2F|E6 A2G|
FC2-C3 C2D|C6 F3|E3 A,3 A,2B,|C6 C3|D6 D2E|F6 F3|E3-E2 E F2=G|G6||


